material/.icons/material/home-automation.svg

<svg xmlns="http://www.w3.org/2000/svg" viewBox="0 0 24 24"><path d="M12 3L2 12h3v8h14v-8h3L12 3m0 5.5c2.34 0 4.46.93 6 2.44l-1.2 1.18a6.787 6.787 0 00-4.8-1.95c-1.88 0-3.58.74-4.8 1.95L6 10.94a8.541 8.541 0 016-2.44m0 3.33c1.4 0 2.67.56 3.6 1.47l-1.2 1.17a3.41 3.41 0 00-2.4-.97c-.94 0-1.79.37-2.4.97L8.4 13.3a5.13 5.13 0 013.6-1.47m0 3.34c.94 0 1.7.74 1.7 1.66 0 .92-.76 1.67-1.7 1.67s-1.7-.75-1.7-1.67c0-.92.76-1.66 1.7-1.66z"/></svg>

<?xml version="1.0" encoding="UTF-8"?><!DOCTYPE svg PUBLIC "-//W3C//DTD SVG 1.1//EN" "http://www.w3.org/Graphics/SVG/1.1/DTD/svg11.dtd"><svg xmlns="http://www.w3.org/2000/svg" xmlns:xlink="http://www.w3.org/1999/xlink" version="1.1" id="mdi-home-automation" width="24" height="24" viewBox="0 0 24 24"><path d="M12,3L2,12H5V20H19V12H22L12,3M12,8.5C14.34,8.5 16.46,9.43 18,10.94L16.8,12.12C15.58,10.91 13.88,10.17 12,10.17C10.12,10.17 8.42,10.91 7.2,12.12L6,10.94C7.54,9.43 9.66,8.5 12,8.5M12,11.83C13.4,11.83 14.67,12.39 15.6,13.3L14.4,14.47C13.79,13.87 12.94,13.5 12,13.5C11.06,13.5 10.21,13.87 9.6,14.47L8.4,13.3C9.33,12.39 10.6,11.83 12,11.83M12,15.17C12.94,15.17 13.7,15.91 13.7,16.83C13.7,17.75 12.94,18.5 12,18.5C11.06,18.5 10.3,17.75 10.3,16.83C10.3,15.91 11.06,15.17 12,15.17Z" /></svg>
